common/src/main/resources/icons/plugins/rider/toolWindows/toolWindowWPFPreview.svg

<svg xmlns="http://www.w3.org/2000/svg" width="13" height="13" fill="#4FC3F7" viewBox="0 0 24 24"><path d="m18.93 12-3.47 6H8.54l-3.47-6 3.47-6h6.92zm4.84 0-4.04 7L18 18l3.46-6L18 6l1.73-1zM.23 12l4.04-7L6 6l-3.46 6L6 18l-1.73 1z"/></svg>

<!--
  - The MIT License (MIT)
  -
  - Copyright (c) 2015-2022 Elior "Mallowigi" Boukhobza
  -
  - Permission is hereby granted, free of charge, to any person obtaining a copy
  - of this software and associated documentation files (the "Software"), to deal
  - in the Software without restriction, including without limitation the rights
  - to use, copy, modify, merge, publish, distribute, sublicense, and/or sell
  - copies of the Software, and to permit persons to whom the Software is
  - furnished to do so, subject to the following conditions:
  -
  - The above copyright notice and this permission notice shall be included in all
  - copies or substantial portions of the Software.
  -
  - THE SOFTWARE IS PROVIDED "AS IS", WITHOUT WARRANTY OF ANY KIND, EXPRESS OR
  - IMPLIED, INCLUDING BUT NOT LIMITED TO THE WARRANTIES OF MERCHANTABILITY,
  - FITNESS FOR A PARTICULAR PURPOSE AND NONINFRINGEMENT. IN NO EVENT SHALL THE
  - AUTHORS OR COPYRIGHT HOLDERS BE LIABLE FOR ANY CLAIM, DAMAGES OR OTHER
  - LIABILITY, WHETHER IN AN ACTION OF CONTRACT, TORT OR OTHERWISE, ARISING FROM,
  - OUT OF OR IN CONNECTION WITH THE SOFTWARE OR THE USE OR OTHER DEALINGS IN THE
  - SOFTWARE.
  -
  -
  -->


<svg xmlns="http://www.w3.org/2000/svg" version="1.1" width="13px" height="13px" fill="#4FC3F7"
     viewBox="0 0 24 24">
  <path
    d="M18.93,12L15.46,18H8.54L5.07,12L8.54,6H15.46L18.93,12M23.77,12L19.73,19L18,18L21.46,12L18,6L19.73,5L23.77,12M0.23,12L4.27,5L6,6L2.54,12L6,18L4.27,19L0.23,12Z" />
</svg>
